X: 3
T: The Leitrim Thrush
R: reel
M: 4/4
L: 1/8
K: Dmaj
|:~B3c dBAd | BGAG FAAF | ~B3c dcde | (3fga ba fded |
~B3c dBAd | BGAG F~A3 | ~B3c dcde |1 (3fga ba fddc :|2 (3fga ba fdde |
|:(3aba fd Adfg | Adfd cdef | adfd Adfd | efge fddf |
(3aba fd Adfg | (3aba fd cdef | (3aba (3fgf (3ege dA |1 (3Bcd BA fddf :|2 (3Bcd ba fdd2 |
